X: 24412
T: Lovely On The Water
R: waltz
M: 3/4
K: Eminor
EF|GE A2 GE|G2 E2 EF|GA B2 g2|e2 {fe}d2 g2|
e2 d2 B>G|AB D2 E>F|GA B2 AG|E4||

